Simply black circles/scalable/emblems/emblem-web.svg

<?xml version="1.0" encoding="UTF-8" standalone="no"?>
<!-- Created with Inkscape (http://www.inkscape.org/) -->

<svg
   xmlns:dc="http://purl.org/dc/elements/1.1/"
   xmlns:cc="http://creativecommons.org/ns#"
   xmlns:rdf="http://www.w3.org/1999/02/22-rdf-syntax-ns#"
   xmlns:svg="http://www.w3.org/2000/svg"
   xmlns="http://www.w3.org/2000/svg"
   xmlns:sodipodi="http://sodipodi.sourceforge.net/DTD/sodipodi-0.dtd"
   xmlns:inkscape="http://www.inkscape.org/namespaces/inkscape"
   id="svg2"
   width="24"
   height="24"
   version="1.0"
   sodipodi:docname="emblem-web.svg"
   inkscape:version="0.92.3 (2405546, 2018-03-11)">
  <metadata
     id="metadata25">
    <rdf:RDF>
      <cc:Work
         rdf:about="">
        <dc:format>image/svg+xml</dc:format>
        <dc:type
           rdf:resource="http://purl.org/dc/dcmitype/StillImage" />
        <dc:title></dc:title>
      </cc:Work>
    </rdf:RDF>
  </metadata>
  <sodipodi:namedview
     pagecolor="#ffffff"
     bordercolor="#666666"
     borderopacity="1"
     objecttolerance="10"
     gridtolerance="10"
     guidetolerance="10"
     inkscape:pageopacity="0"
     inkscape:pageshadow="2"
     inkscape:window-width="1366"
     inkscape:window-height="719"
     id="namedview23"
     showgrid="false"
     inkscape:zoom="19.666667"
     inkscape:cx="-5.1021785"
     inkscape:cy="11.79661"
     inkscape:window-x="0"
     inkscape:window-y="25"
     inkscape:window-maximized="1"
     inkscape:current-layer="svg2" />
  <defs
     id="defs4">
    <linearGradient
       id="linearGradient2407"
       x1="63.397"
       x2="63.397"
       y1="-12.489"
       y2="5.4676"
       gradientTransform="matrix(1.0863 0 0 1.0862 -55.567 15.814)"
       gradientUnits="userSpaceOnUse">
      <stop
         id="stop4875"
         style="stop-color:#fff"
         offset="0" />
      <stop
         id="stop4877"
         style="stop-color:#fff;stop-opacity:0"
         offset="1" />
    </linearGradient>
    <radialGradient
       id="radialGradient2410"
       cx="23.896"
       cy="3.99"
       r="20.397"
       gradientTransform="matrix(0,1.2316,-1.6257,0,-1.513,-28.721)"
       gradientUnits="userSpaceOnUse">
      <stop
         id="stop3244"
         style="stop-color:#f8b17e"
         offset="0" />
      <stop
         id="stop3246"
         style="stop-color:#e35d4f"
         offset=".26238" />
      <stop
         id="stop3248"
         style="stop-color:#c6262e"
         offset=".66094" />
      <stop
         id="stop3250"
         style="stop-color:#690b54"
         offset="1" />
    </radialGradient>
    <linearGradient
       id="linearGradient2412"
       x1="18.379"
       x2="18.379"
       y1="44.98"
       y2="3.0816"
       gradientTransform="matrix(0.51604,0,0,0.51604,-20.38499,-0.38499)"
       gradientUnits="userSpaceOnUse">
      <stop
         id="stop2492"
         style="stop-color:#791235"
         offset="0" />
      <stop
         id="stop2494"
         style="stop-color:#dd3b27"
         offset="1" />
    </linearGradient>
    <radialGradient
       id="radialGradient2415"
       cx="62.625"
       cy="4.625"
       r="10.625"
       gradientTransform="matrix(1.1294 0 0 .28235 -58.729 19.694)"
       gradientUnits="userSpaceOnUse">
      <stop
         id="stop8840"
         offset="0" />
      <stop
         id="stop8842"
         style="stop-opacity:0"
         offset="1" />
    </radialGradient>
  </defs>
  <path
     style="fill:#502d16;fill-opacity:1;stroke:none;stroke-width:1.00370002;stroke-linecap:round;stroke-linejoin:round"
     d="m 12,1.5018 c -5.7926,0 -10.498,4.7057 -10.498,10.498 0,5.7926 4.7057,10.498 10.498,10.498 5.7926,0 10.498,-4.7057 10.498,-10.498 C 22.498,6.2072 17.7923,1.5018 12,1.5018 Z"
     id="path2555"
     inkscape:connector-curvature="0" />
  <path
     inkscape:connector-curvature="0"
     style="fill:#ffffff;fill-rule:evenodd;stroke-width:1.05811143"
     d="m 12.121974,4.644073 c -3.1242326,0 -5.7947468,1.943592 -6.8724329,4.6776461 -0.05736,0.1390675 -0.1077369,0.2815105 -0.1566164,0.4246841 -0.00952,0.029638 -0.020633,0.058418 -0.029892,0.088225 -0.2343717,0.7158128 -0.3682228,1.4760658 -0.3682228,2.2691208 0,4.05627 3.3124172,7.353873 7.3866761,7.353873 3.094764,0 5.746603,-1.905022 6.844923,-4.597651 2.85e-4,-6.88e-4 5.29e-4,-0.0013 0.0011,-0.002 0.0789,-0.185434 0.14549,-0.376524 0.209162,-0.569317 0.238324,-0.721632 0.371963,-1.490508 0.371963,-2.290599 0,-4.0553724 -3.313264,-7.3538761 -7.386676,-7.3538761 z m -0.531648,1.1478922 v 2.47524 C 10.885042,8.2424348 10.210602,8.1680337 9.5873211,8.0507632 9.6809375,7.8323426 9.7790827,7.6219795 9.8861268,7.4301809 10.379566,6.5459172 10.975453,5.9943237 11.590374,5.7919599 Z m 1.055096,0.041034 c 0.05545,0.00914 0.111837,0.015554 0.166917,0.025643 0.555615,0.24208 1.08959,0.7673953 1.538336,1.571507 0.105059,0.1882698 0.201512,0.3943899 0.293652,0.6083083 -0.620477,0.1203443 -1.294335,0.1984541 -1.998878,0.2267004 V 5.8329829 Z M 9.3389824,6.3397442 C 9.2066391,6.5237021 9.0790203,6.7140987 8.9639295,6.9203299 8.8107255,7.1948781 8.673716,7.492292 8.5476632,7.8025303 8.2388216,7.7123475 7.9531104,7.6102609 7.6862547,7.499921 8.167817,7.0292201 8.725902,6.6384596 9.3389718,6.3397547 Z m 5.6730646,0.157976 c 0.288124,0.1150537 0.509015,0.2223833 0.73052,0.3303054 0.281246,0.1953644 0.546144,0.4121344 0.791309,0.64931 -0.263613,0.1115832 -0.54715,0.2150823 -0.853155,0.3067148 C 15.556662,7.4807957 15.422801,7.1893389 15.272697,6.920314 15.190736,6.7734323 15.102442,6.634169 15.012015,6.4976832 Z m 2.211136,1.7726012 c 0.67317,0.9123565 1.105197,2.0096186 1.203443,3.2056026 h -1.986552 c -0.03878,-0.960501 -0.183513,-1.8689963 -0.417298,-2.6947994 0.42133,-0.1285764 0.817021,-0.2761088 1.178736,-0.4441687 0.0098,-0.022903 0.01534,-0.0447 0.02164,-0.066677 z M 6.9690247,8.3400774 C 7.3477281,8.5155122 7.7650416,8.667457 8.208549,8.7996363 7.977812,9.6205721 7.8348982,10.522559 7.7964041,11.475971 H 5.8171015 c 0.09578,-1.16551 0.5080254,-2.237483 1.1519656,-3.1358725 z m 8.0294783,0.7006284 c 0.209935,0.7355996 0.345918,1.5590752 0.385354,2.4352442 h -2.73871 V 9.3156032 C 13.474124,9.2853306 14.266174,9.1921163 14.998493,9.04069 Z M 9.2333829,9.0560908 C 9.967448,9.2035492 10.760714,9.291547 11.58985,9.3176665 V 11.47595 H 8.8521982 C 8.8913483,10.605759 9.0259401,9.7878388 9.2334358,9.0561014 Z M 5.8166888,12.52638 h 1.9793026 c 0.039573,0.979599 0.1886771,1.906029 0.4306937,2.745059 C 7.7931821,15.399794 7.3863333,15.548252 7.013931,15.717661 6.3454162,14.808478 5.9156116,13.716454 5.8166253,12.526396 Z m 3.0354565,0 h 2.7376517 v 2.232139 c -0.822099,0.02582 -1.6090697,0.112234 -2.3378972,0.257475 -0.2186481,-0.749195 -0.3593875,-1.592087 -0.3997809,-2.48963 z m 3.7927477,0 h 2.73871 c -0.04068,0.903521 -0.182762,1.752074 -0.403902,2.505026 -0.727135,-0.149178 -1.512782,-0.240853 -2.334829,-0.270813 V 12.52639 Z m 3.794811,0 h 1.986551 c -0.100118,1.204025 -0.538949,2.307635 -1.220955,3.223061 -0.0021,-0.0032 -0.0021,-0.0071 -0.0042,-0.01026 -0.366921,-0.170474 -0.769141,-0.319488 -1.197306,-0.449302 0.245122,-0.843792 0.396009,-1.776835 0.435847,-2.763523 z m -4.849907,3.28258 v 2.400377 C 10.975193,18.006666 10.378895,17.457177 9.8855501,16.573178 9.7894578,16.400984 9.7009411,16.214067 9.6155939,16.020264 10.230939,15.906009 10.895327,15.833397 11.589766,15.808948 Z m 1.055096,0.0021 c 0.694333,0.0276 1.358033,0.103124 1.971103,0.220548 -0.08397,0.18982 -0.17153,0.372623 -0.265835,0.541646 -0.493503,0.884369 -1.090066,1.433687 -1.705252,1.636156 v -2.398313 z m -4.06992,0.454427 c 0.1189582,0.286023 0.246122,0.562491 0.3884486,0.817548 0.1119006,0.200528 0.2345357,0.387714 0.3626888,0.567255 C 8.7437259,17.364938 8.2126598,16.995281 7.748625,16.553732 8.0070106,16.449762 8.2789505,16.350976 8.5749572,16.265481 Z m 7.078766,0.01846 c 0.292869,0.08679 0.562386,0.186192 0.817073,0.291331 -0.46095,0.434196 -0.986794,0.797922 -1.563042,1.079115 0.128667,-0.181365 0.252101,-0.369503 0.364747,-0.57138 0.139285,-0.249603 0.264306,-0.519792 0.381232,-0.799087 z"
     id="path4" />
</svg>

<svg xmlns="http://www.w3.org/2000/svg" width="24" height="24" version="1"><path d="M12 1.502C6.207 1.502 1.502 6.208 1.502 12c0 5.792 4.706 10.498 10.498 10.498 5.793 0 10.498-4.706 10.498-10.498 0-5.793-4.706-10.498-10.498-10.498z" fill="#502d16"/><path d="M12.122 4.644A7.39 7.39 0 0 0 5.25 9.322c-.058.139-.108.281-.157.424l-.03.089a7.272 7.272 0 0 0-.368 2.269c0 4.056 3.312 7.354 7.386 7.354a7.395 7.395 0 0 0 6.845-4.598l.002-.002c.078-.185.145-.377.209-.57.238-.721.372-1.49.372-2.29 0-4.055-3.314-7.354-7.387-7.354zm-.532 1.148v2.475c-.705-.025-1.38-.099-2.003-.216.094-.219.192-.429.3-.62.493-.885 1.088-1.437 1.703-1.639zm1.055.041c.056.01.112.016.167.026.556.242 1.09.767 1.539 1.571.105.188.201.395.293.608-.62.12-1.294.199-1.999.227V5.833zM9.34 6.34c-.132.184-.26.374-.375.58-.153.275-.29.572-.416.883a8.437 8.437 0 0 1-.862-.303A6.323 6.323 0 0 1 9.34 6.34zm5.673.158c.288.115.51.222.73.33.282.195.547.412.792.65a8.273 8.273 0 0 1-.853.306 7.974 7.974 0 0 0-.408-.864 6.493 6.493 0 0 0-.261-.422zm2.211 1.772a6.245 6.245 0 0 1 1.204 3.206H16.44a11.65 11.65 0 0 0-.417-2.695 9.13 9.13 0 0 0 1.179-.444c.01-.023.015-.045.021-.067zM6.97 8.34a9.24 9.24 0 0 0 1.24.46 11.66 11.66 0 0 0-.413 2.676H5.817A6.245 6.245 0 0 1 6.97 8.34zm8.03.7c.21.736.345 1.56.385 2.436h-2.739v-2.16a14.24 14.24 0 0 0 2.353-.275zm-5.766.016a14.31 14.31 0 0 0 2.357.262v2.158H8.852c.04-.87.174-1.688.381-2.42zm-3.416 3.47h1.979c.04.98.189 1.906.43 2.745a9.34 9.34 0 0 0-1.212.447 6.246 6.246 0 0 1-1.197-3.192zm3.035 0h2.738v2.233a14.32 14.32 0 0 0-2.338.257c-.219-.75-.36-1.592-.4-2.49zm3.793 0h2.739c-.041.904-.183 1.752-.404 2.505-.727-.149-1.513-.24-2.335-.27v-2.235zm3.795 0h1.986a6.246 6.246 0 0 1-1.22 3.223c-.003-.003-.003-.007-.005-.01-.367-.17-.769-.32-1.197-.45.245-.843.396-1.776.436-2.763zm-4.85 3.283v2.4c-.615-.202-1.211-.752-1.704-1.636a6.596 6.596 0 0 1-.27-.553c.615-.114 1.28-.187 1.974-.211zm1.055.002c.694.028 1.358.103 1.971.22-.084.19-.172.373-.266.542-.493.885-1.09 1.434-1.705 1.636v-2.398zm-4.07.454c.119.287.246.563.388.818.112.2.235.388.363.567a6.32 6.32 0 0 1-1.577-1.096c.258-.104.53-.203.826-.289zm7.079.019c.293.087.562.186.817.291a6.318 6.318 0 0 1-1.563 1.08 6.245 6.245 0 0 0 .746-1.371z" fill="#fff" fill-rule="evenodd"/></svg>
